_includes/icons/ios-trademark.svg

<svg fill="#666" height="50" viewBox="0 0 50 50" width="50" xmlns="http://www.w3.org/2000/svg"><path d="m.8125 13c-.476562.089844-.8203125.511719-.8125 1v3c0 .550781.449219 1 1 1h6.59375v19.6875c0 .550781.449219 1 1 1h3.3125c.550781 0 1-.449219 1-1v-19.6875h6.59375c.550781 0 1-.449219 1-1v-3c0-.550781-.449219-1-1-1h-18.5c-.03125 0-.0625 0-.09375 0s-.0625 0-.09375 0zm23.375 0c-.503906.0625-.878906.492188-.875 1v23.6875c0 .550781.449219 1 1 1h3.1875c.550781 0 1-.449219 1-1v-14.6875l6.1875 15.09375c.160156.359375.515625.589844.90625.59375h2.09375c.402344.007813.773438-.226562.9375-.59375l6.1875-15.09375v14.6875c0 .550781.449219 1 1 1h3.1875c.550781 0 1-.449219 1-1v-23.6875c0-.550781-.449219-1-1-1h-4.8125c-.398437.007813-.757812.253906-.90625.625l-6.625 15.78125-6.625-15.78125c-.152344-.382812-.527344-.628906-.9375-.625h-4.78125c-.042969-.003906-.082031-.003906-.125 0zm-22.1875 2h16.5v1h-6.59375c-.550781 0-1 .449219-1 1v19.6875h-1.3125v-19.6875c0-.550781-.449219-1-1-1h-6.59375zm23.3125 0h3.125l7.25 17.28125c.148438.371094.507813.617188.90625.625h.09375c.410156.003906.785156-.242187.9375-.625l7.25-17.28125h3.125v21.6875h-1.1875v-18.5c0-.550781-.449219-1-1-1h-.125c-.398437.007813-.757812.253906-.90625.625l-7.75 18.875h-.75l-7.75-18.875c-.152344-.382812-.527344-.628906-.9375-.625h-.09375c-.550781 0-1 .449219-1 1v18.5h-1.1875z"/></svg>

<svg xmlns="http://www.w3.org/2000/svg" viewBox="0 0 50 50" width="50" height="50" fill="#666"><path d="M 0.8125 13 C 0.335938 13.089844 -0.0078125 13.511719 0 14 L 0 17 C 0 17.550781 0.449219 18 1 18 L 7.59375 18 L 7.59375 37.6875 C 7.59375 38.238281 8.042969 38.6875 8.59375 38.6875 L 11.90625 38.6875 C 12.457031 38.6875 12.90625 38.238281 12.90625 37.6875 L 12.90625 18 L 19.5 18 C 20.050781 18 20.5 17.550781 20.5 17 L 20.5 14 C 20.5 13.449219 20.050781 13 19.5 13 L 1 13 C 0.96875 13 0.9375 13 0.90625 13 C 0.875 13 0.84375 13 0.8125 13 Z M 24.1875 13 C 23.683594 13.0625 23.308594 13.492188 23.3125 14 L 23.3125 37.6875 C 23.3125 38.238281 23.761719 38.6875 24.3125 38.6875 L 27.5 38.6875 C 28.050781 38.6875 28.5 38.238281 28.5 37.6875 L 28.5 23 L 34.6875 38.09375 C 34.847656 38.453125 35.203125 38.683594 35.59375 38.6875 L 37.6875 38.6875 C 38.089844 38.695313 38.460938 38.460938 38.625 38.09375 L 44.8125 23 L 44.8125 37.6875 C 44.8125 38.238281 45.261719 38.6875 45.8125 38.6875 L 49 38.6875 C 49.550781 38.6875 50 38.238281 50 37.6875 L 50 14 C 50 13.449219 49.550781 13 49 13 L 44.1875 13 C 43.789063 13.007813 43.429688 13.253906 43.28125 13.625 L 36.65625 29.40625 L 30.03125 13.625 C 29.878906 13.242188 29.503906 12.996094 29.09375 13 L 24.3125 13 C 24.269531 12.996094 24.230469 12.996094 24.1875 13 Z M 2 15 L 18.5 15 L 18.5 16 L 11.90625 16 C 11.355469 16 10.90625 16.449219 10.90625 17 L 10.90625 36.6875 L 9.59375 36.6875 L 9.59375 17 C 9.59375 16.449219 9.144531 16 8.59375 16 L 2 16 Z M 25.3125 15 L 28.4375 15 L 35.6875 32.28125 C 35.835938 32.652344 36.195313 32.898438 36.59375 32.90625 L 36.6875 32.90625 C 37.097656 32.910156 37.472656 32.664063 37.625 32.28125 L 44.875 15 L 48 15 L 48 36.6875 L 46.8125 36.6875 L 46.8125 18.1875 C 46.8125 17.636719 46.363281 17.1875 45.8125 17.1875 L 45.6875 17.1875 C 45.289063 17.195313 44.929688 17.441406 44.78125 17.8125 L 37.03125 36.6875 L 36.28125 36.6875 L 28.53125 17.8125 C 28.378906 17.429688 28.003906 17.183594 27.59375 17.1875 L 27.5 17.1875 C 26.949219 17.1875 26.5 17.636719 26.5 18.1875 L 26.5 36.6875 L 25.3125 36.6875 Z"/></svg>
